X:64636817509692
T:11-4-4-3-7-6-10-11-7-5-2-8-8-11-3-6
%%setfont-1 Courier-Bold 8
T:$1K.516f::3:95:158:63:154:97:62:33:138:176:26:175:43:59:116:93::$0
T:$1Perm. No.: 64636817509692$0
M:3/8
L:1/8
Q:1/8=111
%%staves [1 2]
V:1 clef=treble
V:2 clef=bass
K:C
%1
[V:1]|: gce |\
[V:2]|: [E,2C,2]z |\
%2
[V:1] gec |\
[V:2] E,2 z & C,2 x |\
%3
[V:1] Bd/B/A/G/ |\
[V:2] G,2z |\
%4
[V:1] e/c/B/c/G |\
[V:2] C,2z |\
%5
[V:1] d/^c/d/^f/a/f/ |\
[V:2] C,2z |\
%6
[V:1] g/^f/g/d/B/G/ |\
[V:2] [D,2B,,2][G,B,,] |\
%7
[V:1] e/c/B/G/A/^F/ \
[V:2] C,D,D,, \
%8a
[V:1]|1 [g2d2B2G2]z :|2
[V:2]|1 G,,G,/=F,/E,/D,/ :|2
%8b
[V:1] [g2d2B2G2]z |:\
[V:2] G,,B,/G,/^F,/E,/ |:\
%9
[V:1] [^fdA]!trill!f2 |\
[V:2] D,,/D,/^C,/D,/^C,/D,/ |\
%10
[V:1] a/g/b/g/d/g/ |\
[V:2] [D,2B,,2][D,B,,] |\
%11
[V:1] [ec][ec][ec] |\
[V:2] C,/E,/G,/E,/C/C,/ |\
%12
[V:1] e/c/B/d/g |\
[V:2] G,G,,z |\
%13
[V:1] gf/e/d/c/ |\
[V:2] [E,2C,2]z |\
%14
[V:1] gce |\
[V:2] [E,/C,/]G,/[E,/C,/]G,/[E,/C,/]G,/ |\
%15
[V:1] d/f/a/f/d/B/ |\
[V:2] F,2G, |\
%16
[V:1] c2z :|]
[V:2] C,G,,C,, :|]
